public/logo.svg

<?xml version="1.0" encoding="utf-8"?>
<svg fill="none" height="48" viewBox="0 0 48 48" width="48" xmlns="http://www.w3.org/2000/svg">
  <filter id="a" color-interpolation-filters="sRGB" filterUnits="userSpaceOnUse" height="54" width="48" x="0" y="-3">
    <feFlood flood-opacity="0" result="BackgroundImageFix"/>
    <feBlend in="SourceGraphic" in2="BackgroundImageFix" mode="normal" result="shape"/>
    <feColorMatrix in="SourceAlpha" result="hardAlpha" type="matrix" values="0 0 0 0 0 0 0 0 0 0 0 0 0 0 0 0 0 0 127 0"/>
    <feOffset dy="-3"/>
    <feGaussianBlur stdDeviation="1.5"/>
    <feComposite in2="hardAlpha" k2="-1" k3="1" operator="arithmetic"/>
    <feColorMatrix type="matrix" values="0 0 0 0 0 0 0 0 0 0 0 0 0 0 0 0 0 0 0.1 0"/>
    <feBlend in2="shape" mode="normal" result="effect1_innerShadow_3051_47007"/>
    <feColorMatrix in="SourceAlpha" result="hardAlpha" type="matrix" values="0 0 0 0 0 0 0 0 0 0 0 0 0 0 0 0 0 0 127 0"/>
    <feOffset dy="3"/>
    <feGaussianBlur stdDeviation="1.5"/>
    <feComposite in2="hardAlpha" k2="-1" k3="1" operator="arithmetic"/>
    <feColorMatrix type="matrix" values="0 0 0 0 1 0 0 0 0 1 0 0 0 0 1 0 0 0 0.1 0"/>
    <feBlend in2="effect1_innerShadow_3051_47007" mode="normal" result="effect2_innerShadow_3051_47007"/>
    <feColorMatrix in="SourceAlpha" result="hardAlpha" type="matrix" values="0 0 0 0 0 0 0 0 0 0 0 0 0 0 0 0 0 0 127 0"/>
    <feMorphology in="SourceAlpha" operator="erode" radius="1" result="effect3_innerShadow_3051_47007"/>
    <feOffset/>
    <feComposite in2="hardAlpha" k2="-1" k3="1" operator="arithmetic"/>
    <feColorMatrix type="matrix" values="0 0 0 0 0.0627451 0 0 0 0 0.0941176 0 0 0 0 0.156863 0 0 0 0.24 0"/>
    <feBlend in2="effect2_innerShadow_3051_47007" mode="normal" result="effect3_innerShadow_3051_47007"/>
  </filter>
  <filter id="b" color-interpolation-filters="sRGB" filterUnits="userSpaceOnUse" height="42" width="36" x="6" y="5.25">
    <feFlood flood-opacity="0" result="BackgroundImageFix"/>
    <feColorMatrix in="SourceAlpha" result="hardAlpha" type="matrix" values="0 0 0 0 0 0 0 0 0 0 0 0 0 0 0 0 0 0 127 0"/>
    <feMorphology in="SourceAlpha" operator="erode" radius="1.5" result="effect1_dropShadow_3051_47007"/>
    <feOffset dy="2.25"/>
    <feGaussianBlur stdDeviation="2.25"/>
    <feComposite in2="hardAlpha" operator="out"/>
    <feColorMatrix type="matrix" values="0 0 0 0 0.141176 0 0 0 0 0.141176 0 0 0 0 0.141176 0 0 0 0.1 0"/>
    <feBlend in2="BackgroundImageFix" mode="normal" result="effect1_dropShadow_3051_47007"/>
    <feBlend in="SourceGraphic" in2="effect1_dropShadow_3051_47007" mode="normal" result="shape"/>
  </filter>
  <linearGradient id="c" gradientUnits="userSpaceOnUse" x1="24" x2="26" y1=".000001" y2="48">
    <stop offset="0" stop-color="#fff" stop-opacity="0"/>
    <stop offset="1" stop-color="#fff" stop-opacity=".12"/>
  </linearGradient>
  <linearGradient id="d" gradientUnits="userSpaceOnUse" x1="24" x2="24" y1="9" y2="39">
    <stop offset="0" stop-color="#fff" stop-opacity=".8"/>
    <stop offset="1" stop-color="#fff" stop-opacity=".5"/>
  </linearGradient>
  <clipPath id="f">
    <rect height="48" rx="12" width="48"/>
  </clipPath>
  <g filter="url(#a)">
    <g clip-path="url(#f)">
      <rect fill="#175cd3" height="48" rx="12" width="48"/>
      <path d="m0 0h48v48h-48z" fill="url(#c)"/>
      <g filter="url(#b)">
        <path d="m24 9v9.2703c0 2.0449-2.5073 3.0295-3.8988 1.531l-5.8512-6.3013m24.75 10.5h-9.2703c-2.0449 0-3.0295-2.5073-1.531-3.8988l6.3013-5.8512m-10.5 24.75v-9.2703c0-2.0449 2.5073-3.0295 3.8988-1.531l5.8512 6.3013m-24.75-10.5h9.2703c2.0449 0 3.0295 2.5073 1.531 3.8988l-6.3013 5.8512" stroke="url(#d)" stroke-width="3"/>
      </g>
    </g>
  </g>
</svg>

<svg width="48" height="48" viewBox="0 0 48 48" fill="none" xmlns="http://www.w3.org/2000/svg">
<g clip-path="url(#clip0_1202_6344)">
<rect width="48" height="48" rx="12" fill="#175CD3"/>
<g filter="url(#filter0_d_1202_6344)">
<path d="M24 9V18.2703C24 20.3152 21.4927 21.2998 20.1012 19.8013L14.25 13.5M39 24H29.7297C27.6848 24 26.7002 21.4927 28.1987 20.1012L34.5 14.25M24 39V29.7297C24 27.6848 26.5073 26.7002 27.8988 28.1987L33.75 34.5M9 24L18.2703 24C20.3152 24 21.2998 26.5073 19.8013 27.8988L13.5 33.75" stroke="url(#paint0_linear_1202_6344)" stroke-width="3"/>
</g>
</g>
<defs>
<filter id="filter0_d_1202_6344" x="6" y="5.25" width="36" height="42" filterUnits="userSpaceOnUse" color-interpolation-filters="sRGB">
<feFlood flood-opacity="0" result="BackgroundImageFix"/>
<feColorMatrix in="SourceAlpha" type="matrix" values="0 0 0 0 0 0 0 0 0 0 0 0 0 0 0 0 0 0 127 0" result="hardAlpha"/>
<feMorphology radius="1.5" operator="erode" in="SourceAlpha" result="effect1_dropShadow_1202_6344"/>
<feOffset dy="2.25"/>
<feGaussianBlur stdDeviation="2.25"/>
<feComposite in2="hardAlpha" operator="out"/>
<feColorMatrix type="matrix" values="0 0 0 0 0.141176 0 0 0 0 0.141176 0 0 0 0 0.141176 0 0 0 0.1 0"/>
<feBlend mode="normal" in2="BackgroundImageFix" result="effect1_dropShadow_1202_6344"/>
<feBlend mode="normal" in="SourceGraphic" in2="effect1_dropShadow_1202_6344" result="shape"/>
</filter>
<linearGradient id="paint0_linear_1202_6344" x1="24" y1="9" x2="24" y2="39" gradientUnits="userSpaceOnUse">
<stop stop-color="white" stop-opacity="0.8"/>
<stop offset="1" stop-color="white" stop-opacity="0.5"/>
</linearGradient>
<clipPath id="clip0_1202_6344">
<rect width="48" height="48" rx="12" fill="white"/>
</clipPath>
</defs>
</svg>
